photo/vk.svg

<?xml version="1.0" encoding="UTF-8"?>
<svg xmlns="http://www.w3.org/2000/svg" xmlns:xlink="http://www.w3.org/1999/xlink" width="30pt" height="30.000001pt" viewBox="0 0 30 30.000001" version="1.2">
<defs>
<clipPath id="clip1">
  <path d="M 0.484375 0 L 29.515625 0 L 29.515625 29.03125 L 0.484375 29.03125 Z M 0.484375 0 "/>
</clipPath>
</defs>
<g id="surface1">
<g clip-path="url(#clip1)" clip-rule="nonzero">
<path style=" stroke:none;fill-rule:nonzero;fill:rgb(85.099792%,85.099792%,85.099792%);fill-opacity:1;" d="M 15 0 C 6.992188 0 0.484375 6.507812 0.484375 14.515625 C 0.484375 22.527344 6.992188 29.03125 15 29.03125 C 23.007812 29.03125 29.515625 22.527344 29.515625 14.515625 C 29.515625 6.507812 23.007812 0 15 0 Z M 15 1.261719 C 22.328125 1.261719 28.253906 7.1875 28.253906 14.515625 C 28.253906 21.84375 22.328125 27.769531 15 27.769531 C 7.671875 27.769531 1.746094 21.84375 1.746094 14.515625 C 1.746094 7.1875 7.671875 1.261719 15 1.261719 Z M 8.691406 10.097656 L 6.144531 10.097656 C 6.144531 10.097656 5.996094 10.089844 5.820312 10.113281 C 5.644531 10.136719 5.386719 10.148438 5.117188 10.449219 L 5.117188 10.453125 C 4.878906 10.722656 4.886719 11.039062 4.917969 11.210938 C 4.949219 11.386719 5.011719 11.515625 5.015625 11.515625 C 5.039062 11.578125 6.886719 16.109375 9.21875 18.542969 C 10.863281 20.261719 12.621094 20.828125 14.1875 20.828125 L 15 20.828125 C 15.265625 20.828125 15.507812 20.816406 15.769531 20.679688 C 16.035156 20.542969 16.261719 20.164062 16.261719 19.871094 C 16.261719 19.554688 16.269531 19.246094 16.308594 19.074219 C 16.347656 18.917969 16.332031 18.957031 16.347656 18.953125 C 16.363281 18.957031 16.390625 18.964844 16.445312 18.988281 C 16.554688 19.039062 16.730469 19.152344 16.921875 19.300781 C 17.308594 19.601562 17.765625 20.035156 18.277344 20.371094 C 19.007812 20.855469 19.804688 20.828125 19.804688 20.828125 L 22.429688 20.828125 L 22.457031 20.824219 C 22.457031 20.824219 22.859375 20.816406 23.273438 20.5625 C 23.480469 20.4375 23.726562 20.203125 23.808594 19.855469 C 23.890625 19.507812 23.785156 19.140625 23.582031 18.820312 C 23.507812 18.703125 23.148438 18.179688 21.714844 16.90625 C 21.34375 16.578125 21.089844 16.34375 20.988281 16.222656 C 20.953125 16.175781 20.949219 16.179688 20.945312 16.179688 C 20.953125 16.15625 21.035156 15.984375 21.257812 15.695312 C 21.488281 15.394531 21.839844 14.976562 22.292969 14.398438 C 22.867188 13.667969 23.269531 12.960938 23.523438 12.367188 C 23.652344 12.070312 23.742188 11.796875 23.796875 11.554688 C 23.851562 11.308594 23.894531 11.105469 23.8125 10.816406 C 23.753906 10.597656 23.59375 10.40625 23.433594 10.304688 C 23.277344 10.203125 23.128906 10.164062 22.996094 10.140625 C 22.730469 10.089844 22.496094 10.097656 22.277344 10.097656 C 21.820312 10.097656 19.789062 10.113281 19.621094 10.113281 C 19.425781 10.113281 19.113281 10.195312 18.964844 10.28125 C 18.605469 10.484375 18.492188 10.769531 18.492188 10.769531 L 18.457031 10.828125 L 18.4375 10.898438 C 18.4375 10.898438 17.976562 12.394531 17.5 13.164062 C 16.941406 14.070312 16.523438 14.433594 16.339844 14.535156 C 16.320312 14.546875 16.332031 14.539062 16.316406 14.546875 C 16.304688 14.503906 16.285156 14.449219 16.273438 14.339844 C 16.246094 14.101562 16.261719 13.761719 16.261719 13.4375 C 16.261719 12.53125 16.332031 11.964844 16.253906 11.433594 C 16.21875 11.164062 16.121094 10.867188 15.902344 10.636719 C 15.683594 10.410156 15.402344 10.296875 15.117188 10.230469 C 14.824219 10.164062 14.503906 10.105469 13.742188 10.097656 C 12.773438 10.089844 12.140625 10.121094 11.578125 10.371094 L 11.574219 10.375 L 11.566406 10.375 C 11.347656 10.480469 11.171875 10.597656 11.015625 10.757812 C 10.941406 10.839844 10.847656 10.898438 10.785156 11.152344 C 10.753906 11.277344 10.75 11.519531 10.894531 11.714844 C 11.039062 11.90625 11.238281 11.964844 11.355469 11.980469 C 11.335938 11.980469 11.449219 12.003906 11.539062 12.046875 C 11.628906 12.09375 11.707031 12.15625 11.726562 12.179688 L 11.726562 12.183594 C 11.71875 12.171875 11.804688 12.382812 11.824219 12.578125 C 11.847656 12.773438 11.84375 12.929688 11.84375 12.929688 L 11.84375 12.964844 L 11.847656 13.003906 C 11.847656 13.003906 11.886719 13.433594 11.867188 13.875 C 11.855469 14.097656 11.828125 14.320312 11.789062 14.457031 C 11.789062 14.464844 11.789062 14.460938 11.785156 14.46875 C 11.628906 14.359375 11.261719 13.972656 10.761719 13.144531 C 10.296875 12.378906 9.863281 10.996094 9.863281 10.996094 L 9.851562 10.96875 L 9.839844 10.9375 C 9.839844 10.9375 9.761719 10.628906 9.402344 10.378906 C 9.066406 10.140625 8.746094 10.109375 8.746094 10.109375 Z M 8.542969 11.359375 C 8.578125 11.375 8.65625 11.402344 8.667969 11.40625 L 8.652344 11.363281 C 8.652344 11.363281 8.671875 11.40625 8.675781 11.410156 C 8.644531 11.390625 8.671875 11.410156 8.675781 11.414062 C 8.695312 11.476562 9.078125 12.804688 9.679688 13.796875 C 10.230469 14.703125 10.632812 15.210938 11.078125 15.511719 C 11.519531 15.816406 12.113281 15.785156 12.414062 15.628906 C 12.816406 15.417969 12.929688 15.074219 13.007812 14.789062 C 13.085938 14.5 13.113281 14.210938 13.125 13.933594 C 13.148438 13.410156 13.109375 12.980469 13.105469 12.9375 C 13.105469 12.914062 13.113281 12.707031 13.078125 12.433594 C 13.046875 12.152344 12.988281 11.808594 12.742188 11.460938 C 13.019531 11.417969 13.171875 11.355469 13.730469 11.359375 C 14.445312 11.367188 14.554688 11.398438 14.832031 11.460938 C 14.988281 11.496094 15.003906 11.527344 14.988281 11.511719 C 14.972656 11.496094 14.988281 11.484375 15.003906 11.609375 C 15.039062 11.851562 15 12.480469 15 13.4375 C 15 13.707031 14.972656 14.085938 15.019531 14.480469 C 15.0625 14.878906 15.1875 15.386719 15.667969 15.683594 C 15.941406 15.851562 16.460938 15.910156 16.953125 15.636719 C 17.449219 15.363281 17.953125 14.835938 18.574219 13.824219 C 19.1875 12.828125 19.558594 11.519531 19.597656 11.382812 C 19.597656 11.382812 19.605469 11.375 19.609375 11.375 C 19.617188 11.375 19.605469 11.375 19.621094 11.375 C 19.855469 11.375 21.851562 11.359375 22.277344 11.359375 C 22.394531 11.359375 22.445312 11.367188 22.535156 11.371094 C 22.5 11.507812 22.453125 11.664062 22.363281 11.871094 C 22.160156 12.351562 21.808594 12.972656 21.296875 13.621094 C 20.859375 14.179688 20.519531 14.585938 20.257812 14.925781 C 19.996094 15.261719 19.792969 15.53125 19.707031 15.917969 C 19.621094 16.304688 19.785156 16.738281 20.007812 17.015625 C 20.230469 17.289062 20.507812 17.523438 20.875 17.851562 C 22.261719 19.082031 22.492188 19.457031 22.511719 19.492188 C 22.535156 19.53125 22.519531 19.492188 22.53125 19.511719 C 22.453125 19.535156 22.359375 19.5625 22.347656 19.566406 L 19.792969 19.566406 C 19.792969 19.566406 19.320312 19.550781 18.972656 19.320312 L 18.972656 19.316406 L 18.96875 19.316406 C 18.601562 19.074219 18.15625 18.660156 17.695312 18.304688 C 17.46875 18.128906 17.234375 17.960938 16.964844 17.839844 C 16.691406 17.714844 16.351562 17.628906 15.988281 17.738281 C 15.464844 17.894531 15.175781 18.390625 15.082031 18.785156 C 15.015625 19.070312 15.027344 19.316406 15.023438 19.5625 C 15.003906 19.566406 15.019531 19.566406 15 19.566406 L 14.1875 19.566406 C 12.90625 19.566406 11.570312 19.171875 10.132812 17.667969 C 8.257812 15.714844 6.589844 11.9375 6.339844 11.363281 Z M 19.550781 11.367188 C 19.539062 11.367188 19.574219 11.371094 19.601562 11.371094 C 19.597656 11.375 19.601562 11.371094 19.59375 11.375 C 19.59375 11.363281 19.566406 11.363281 19.550781 11.367188 Z M 19.550781 11.367188 "/>
</g>
</g>
</svg>

<svg xmlns="http://www.w3.org/2000/svg" version="1.2" viewBox="0 0 30 30"><defs><clipPath id="a"><path d="M.484 0h29.032v29.031H.484Zm0 0"/></clipPath></defs><g clip-path="url(#a)"><path d="M15 0C6.992 0 .484 6.508.484 14.516.484 22.527 6.992 29.03 15 29.03s14.516-6.504 14.516-14.515C29.516 6.508 23.008 0 15 0Zm0 1.262c7.328 0 13.254 5.925 13.254 13.254 0 7.328-5.926 13.254-13.254 13.254-7.328 0-13.254-5.926-13.254-13.254C1.746 7.187 7.672 1.262 15 1.262Zm-6.309 8.836H6.145s-.149-.008-.325.015c-.175.024-.433.035-.703.336v.004a.893.893 0 0 0-.199.758c.031.176.094.305.098.305.023.062 1.87 4.593 4.203 7.027 1.644 1.719 3.402 2.285 4.969 2.285H15c.266 0 .508-.012.77-.148.265-.137.492-.516.492-.809 0-.316.008-.625.047-.797.039-.156.023-.117.039-.12a.63.63 0 0 1 .097.034c.11.051.285.164.477.313.387.3.844.734 1.355 1.07.73.484 1.528.457 1.528.457h2.625l.027-.004s.402-.008.816-.262c.207-.125.454-.359.536-.707.082-.347-.024-.714-.227-1.035-.074-.117-.434-.64-1.867-1.914-.371-.328-.625-.562-.727-.683-.035-.047-.039-.043-.043-.043.008-.024.09-.196.313-.485.23-.3.582-.718 1.035-1.297a9.22 9.22 0 0 0 1.23-2.03 4.62 4.62 0 0 0 .274-.813c.055-.246.098-.45.015-.739a.92.92 0 0 0-.378-.511 1.126 1.126 0 0 0-.438-.164c-.266-.051-.5-.043-.719-.043-.457 0-2.488.015-2.656.015-.195 0-.508.082-.656.168-.36.203-.473.489-.473.489l-.035.058-.02.07s-.46 1.497-.937 2.266c-.559.906-.977 1.27-1.16 1.371-.02.012-.008.004-.024.012-.011-.043-.03-.098-.043-.207-.027-.238-.011-.578-.011-.902 0-.907.07-1.473-.008-2.004-.035-.27-.133-.567-.352-.797-.218-.227-.5-.34-.785-.407-.293-.066-.613-.125-1.375-.132-.969-.008-1.601.023-2.164.273l-.004.004h-.008a1.875 1.875 0 0 0-.55.383c-.075.082-.168.14-.23.394a.706.706 0 0 0 .109.563.69.69 0 0 0 .46.265c-.02 0 .094.024.184.067.09.047.168.11.188.133v.004c-.008-.012.078.199.097.394.024.195.02.352.02.352v.035l.004.039s.039.43.02.871c-.013.223-.04.445-.079.582 0 .008 0 .004-.004.012-.156-.11-.523-.496-1.023-1.324-.465-.766-.899-2.149-.899-2.149l-.011-.027-.012-.031s-.078-.31-.438-.56c-.336-.237-.656-.269-.656-.269Zm-.148 1.261c.035.016.113.043.125.047l-.016-.043s.02.043.024.047c-.031-.02-.004 0 0 .004.02.063.402 1.39 1.004 2.383.55.906.953 1.414 1.398 1.715.442.304 1.035.273 1.336.117.402-.211.516-.555.594-.84.078-.289.105-.578.117-.855a7.845 7.845 0 0 0-.02-.996c0-.024.008-.231-.027-.504-.031-.282-.09-.625-.336-.973.278-.043.43-.106.988-.102.715.008.825.04 1.102.102.156.035.172.066.156.05-.015-.015 0-.027.016.098.035.243-.004.871-.004 1.829 0 .269-.027.648.02 1.042.043.399.168.907.648 1.204.273.168.793.226 1.285-.047.496-.274 1-.801 1.621-1.813.613-.996.985-2.304 1.024-2.441 0 0 .007-.008.011-.008h.012c.234 0 2.23-.016 2.656-.016.118 0 .168.008.258.012a3.188 3.188 0 0 1-.172.5 7.884 7.884 0 0 1-1.066 1.75c-.438.559-.777.965-1.04 1.305-.26.336-.464.605-.55.992-.086.387.078.82.3 1.098.223.273.5.507.868.836 1.387 1.23 1.617 1.605 1.637 1.64.023.04.008 0 .02.02l-.184.054h-2.555s-.473-.015-.82-.246v-.004h-.004c-.367-.242-.813-.656-1.274-1.011a3.624 3.624 0 0 0-.73-.465c-.274-.125-.613-.211-.977-.102-.523.157-.812.653-.906 1.047-.066.285-.055.531-.059.777-.02.004-.003.004-.023.004h-.813c-1.28 0-2.617-.394-4.054-1.898-1.875-1.953-3.543-5.73-3.793-6.305Zm11.008.008a.195.195 0 0 0 .05.004c-.003.004 0 0-.007.004 0-.012-.028-.012-.043-.008Zm0 0" style="stroke:none;fill-rule:nonzero;fill:#d9d9d9;fill-opacity:1"/></g></svg>
